flutter/assets/qr_icon.svg

<svg width="22" height="22" version="1.1" viewBox="0 0 5.8208 5.8208" xml:space="preserve" xmlns="http://www.w3.org/2000/svg"><g transform="translate(-99.295 -154.18)"><g transform="matrix(.26458 0 0 .26458 99.295 154.18)" fill="#00b4e9"><path d="m2 2v6h6v-6zm-1-2c-0.55228 0-1 0.44772-1 1v8c0 0.55229 0.44772 1 1 1h8c0.55229 0 1-0.44772 1-1v-8c0-0.55228-0.44772-1-1-1z" clip-rule="evenodd" fill-rule="evenodd"/><path d="M 3,3.5 C 3,3.22386 3.22386,3 3.5,3 h 3 C 6.77614,3 7,3.22386 7,3.5 v 3 C 7,6.77614 6.77614,7 6.5,7 h -3 C 3.22386,7 3,6.77614 3,6.5 Z"/><path d="m2 14v6h6v-6zm-1-2c-0.55228 0-1 0.4477-1 1v8c0 0.5523 0.44772 1 1 1h8c0.55229 0 1-0.4477 1-1v-8c0-0.5523-0.44772-1-1-1z" clip-rule="evenodd" fill-rule="evenodd"/><path d="m14 2v6h6v-6zm-1-2c-0.5523 0-1 0.44772-1 1v8c0 0.55229 0.4477 1 1 1h8c0.5523 0 1-0.44772 1-1v-8c0-0.55228-0.4477-1-1-1z" clip-rule="evenodd" fill-rule="evenodd"/><path d="m12 13c0-0.5523 0.4477-1 1-1h3c0.5523 0 1 0.4477 1 1v3c0 0.5523-0.4477 1-1 1h-3c-0.5523 0-1-0.4477-1-1z"/><path d="m17 18c0-0.5523 0.4477-1 1-1h3c0.5523 0 1 0.4477 1 1v3c0 0.5523-0.4477 1-1 1h-3c-0.5523 0-1-0.4477-1-1z"/></g></g></svg>

<svg width="22" height="22" viewBox="0 0 22 22" fill="none" xmlns="http://www.w3.org/2000/svg">
<path fill-rule="evenodd" clip-rule="evenodd" d="M2 2V8H8V2H2ZM1 0C0.447715 0 0 0.447716 0 1V9C0 9.55229 0.447716 10 1 10H9C9.55229 10 10 9.55228 10 9V1C10 0.447715 9.55228 0 9 0H1Z" fill="#00B4E9"/>
<path d="M3 3.5C3 3.22386 3.22386 3 3.5 3H6.5C6.77614 3 7 3.22386 7 3.5V6.5C7 6.77614 6.77614 7 6.5 7H3.5C3.22386 7 3 6.77614 3 6.5V3.5Z" fill="#00B4E9"/>
<path fill-rule="evenodd" clip-rule="evenodd" d="M2 14V20H8V14H2ZM1 12C0.447715 12 0 12.4477 0 13V21C0 21.5523 0.447716 22 1 22H9C9.55229 22 10 21.5523 10 21V13C10 12.4477 9.55228 12 9 12H1Z" fill="#00B4E9"/>
<path fill-rule="evenodd" clip-rule="evenodd" d="M14 2V8H20V2H14ZM13 0C12.4477 0 12 0.447716 12 1V9C12 9.55229 12.4477 10 13 10H21C21.5523 10 22 9.55228 22 9V1C22 0.447715 21.5523 0 21 0H13Z" fill="#00B4E9"/>
<path d="M12 13C12 12.4477 12.4477 12 13 12H16C16.5523 12 17 12.4477 17 13V16C17 16.5523 16.5523 17 16 17H13C12.4477 17 12 16.5523 12 16V13Z" fill="#00B4E9"/>
<path d="M17 18C17 17.4477 17.4477 17 18 17H21C21.5523 17 22 17.4477 22 18V21C22 21.5523 21.5523 22 21 22H18C17.4477 22 17 21.5523 17 21V18Z" fill="#00B4E9"/>
</svg>
